X: 12203
T: Factory Smoke, The
R: hornpipe
M: 4/4
K: Bminor
|:FE|DCB,A, B,CDE|FB,B,A, B,dcB|AGFE DEFD|(3EFE (3DCB, A,2 FE|
DCB,A, B,CDE|FB (3ABc B2 FF|GFED EGFE|D2 B,2 B,2:|
|:Bc|dBFD BFDB,|F,B,DF Bc (3dcB|cAEC AECA,|EA,CE AECE|
DCB,A, B,CDE|FB (3ABc B2 FF|GFED EGFE|D2 B,2 B,2:|

